X: 709
T: Keeper Hill
R: reel
%S: s:2 b:12(6+6)
B: Francis O'Neill: "The Dance Music of Ireland" (1907) #709
Z: Frank Nordberg - http://www.musicaviva.com
F: http://www.musicaviva.com/abc/tunes/ireland/oneill-1001/0709/oneill-1001-0709-1.abc
M: C|
L: 1/8
K: A
"^A"\
|: A,2A,C EDEF | AGAc BABc |\
[1 A,2A,C EDEF | ABcA BAFA :|\
[2 defd   cdec | BABc BAFA |]
"^B"\
|: cAae cAae | cAag fedc |\
[1 dBbf dBbf | dBba gfed :|\
[2 defg agae | dBcA GAFA |]
